X: 43343
T: Worn Torn Petticoat, The
R: slide
M: 12/8
K: Ddorian
A, D2E|:F3 EFE D2C A,2G,|A,B,C D2E F2G A2G|
F3 EFE D2C A,2G,|1 A,B,C F2E D2A, D2E:|2 A,B,C F2E D3 D2E||
|:F2G A2B c2A GAc|A2d dcB c2A G2E|
[1 F2G A2B c2A GAc|Acd f2e d3 d2 E:|
[2F2 E DEF E2D C2G,|A,B,C F2E D2A, D2E||

